src/assets/icon/add_circle.svg

<svg width="10" height="10" viewBox="0 0 10 10" fill="none" xmlns="http://www.w3.org/2000/svg">
<path d="M4.625 5.375V7C4.625 7.10625 4.66096 7.19529 4.73288 7.26713C4.80479 7.33904 4.89388 7.375 5.00013 7.375C5.10646 7.375 5.1955 7.33904 5.26725 7.26713C5.33908 7.19529 5.375 7.10625 5.375 7V5.375H7C7.10625 5.375 7.19529 5.33904 7.26713 5.26713C7.33904 5.19521 7.375 5.10612 7.375 4.99988C7.375 4.89354 7.33904 4.8045 7.26713 4.73275C7.19529 4.66092 7.10625 4.625 7 4.625H5.375V3C5.375 2.89375 5.33904 2.80471 5.26713 2.73288C5.19521 2.66096 5.10612 2.625 4.99988 2.625C4.89354 2.625 4.8045 2.66096 4.73275 2.73288C4.66092 2.80471 4.625 2.89375 4.625 3V4.625H3C2.89375 4.625 2.80471 4.66096 2.73288 4.73288C2.66096 4.80479 2.625 4.89388 2.625 5.00013C2.625 5.10646 2.66096 5.1955 2.73288 5.26725C2.80471 5.33908 2.89375 5.375 3 5.375H4.625ZM5.00087 9.75C4.34387 9.75 3.72633 9.62533 3.14825 9.376C2.57017 9.12667 2.06733 8.78829 1.63975 8.36088C1.21217 7.93346 0.873625 7.43083 0.624125 6.853C0.374708 6.27517 0.25 5.65779 0.25 5.00087C0.25 4.34387 0.374667 3.72633 0.624 3.14825C0.873333 2.57017 1.21171 2.06733 1.63913 1.63975C2.06654 1.21217 2.56917 0.873625 3.147 0.624125C3.72483 0.374708 4.34221 0.25 4.99913 0.25C5.65613 0.25 6.27367 0.374666 6.85175 0.624C7.42983 0.873333 7.93267 1.21171 8.36025 1.63913C8.78783 2.06654 9.12638 2.56917 9.37588 3.147C9.62529 3.72483 9.75 4.34221 9.75 4.99913C9.75 5.65613 9.62533 6.27367 9.376 6.85175C9.12667 7.42983 8.78829 7.93267 8.36088 8.36025C7.93346 8.78783 7.43083 9.12638 6.853 9.37588C6.27517 9.62529 5.65779 9.75 5.00087 9.75ZM5 9C6.11667 9 7.0625 8.6125 7.8375 7.8375C8.6125 7.0625 9 6.11667 9 5C9 3.88333 8.6125 2.9375 7.8375 2.1625C7.0625 1.3875 6.11667 1 5 1C3.88333 1 2.9375 1.3875 2.1625 2.1625C1.3875 2.9375 1 3.88333 1 5C1 6.11667 1.3875 7.0625 2.1625 7.8375C2.9375 8.6125 3.88333 9 5 9Z" fill="#636263"/>
</svg>

<svg xmlns="http://www.w3.org/2000/svg" width="10" height="10" fill="none" xmlns:v="https://vecta.io/nano"><path d="M4.625 5.375V7c0 .106.036.195.108.267s.161.108.267.108.195-.036.267-.108.108-.161.108-.267V5.375H7c.106 0 .195-.036.267-.108s.108-.161.108-.267-.036-.195-.108-.267-.161-.108-.267-.108H5.375V3c0-.106-.036-.195-.108-.267S5.106 2.625 5 2.625s-.195.036-.267.108-.108.161-.108.267v1.625H3c-.106 0-.195.036-.267.108s-.108.161-.108.267.036.195.108.267.161.108.267.108h1.625zm.376 4.375c-.657 0-1.275-.125-1.853-.374S2.067 8.788 1.64 8.361.874 7.431.624 6.853.25 5.658.25 5.001.375 3.726.624 3.148s.588-1.081 1.015-1.508.93-.766 1.508-1.016S4.342.25 4.999.25s1.275.125 1.853.374 1.081.588 1.509 1.015.766.93 1.016 1.508.374 1.195.374 1.852-.125 1.275-.374 1.853-.588 1.081-1.015 1.509-.93.766-1.508 1.016-1.195.374-1.852.374zM5 9c1.117 0 2.063-.387 2.838-1.162S9 6.117 9 5s-.387-2.062-1.162-2.837S6.117 1 5 1s-2.062.387-2.837 1.163S1 3.883 1 5s.387 2.063 1.163 2.838S3.883 9 5 9z" fill="#636263"/></svg>
